svg/u1f38f.svg

<svg viewBox="0 0 128 128" xmlns="http://www.w3.org/2000/svg">
  <path d="M7.2,20.67l6.85-0.61l12.94,100.19c0,0-0.45,2.79-3.05,3.05c-3.05,0.3-3.81-2.59-3.81-2.59L7.2,20.67 z" fill="#FBC219"/>
  <path d="M2.67,17.47c0.63,5.16,5.25,6.72,8.34,6.51c3.43-0.23,7.88-2.88,7.31-8.45 c-0.67-6.54-6.4-7.77-9.6-6.97C5.07,9.47,2.1,12.79,2.67,17.47z" fill="#E07F16"/>
  <path d="M11.35,10.84C8.8,9.02,5.64,11.3,4.73,13.59S4.5,17.7,5.75,18.73s4,0.69,5.6-1.26 C12.85,15.65,13.75,12.56,11.35,10.84z" fill="#FFC020"/>
  <path d="M30.43,31.98c0,0,4.11-6.63,12.22-12s17.02-9.25,32.79-9.03c10.74,0.16,17.02,0.96,23.42,1.03 c10.62,0.11,17.2-3.89,18.85-1.26c2.28,3.66-6.34,14-6.17,17.02c0.23,4,11.54,2.74,11.65,6.97c0.08,2.86-6.28,10.05-15.99,12.45 S85.5,49,77.84,50.14c-7.65,1.14-21.14,5.5-25.53,6.9C45.9,59.09,30.43,31.98,30.43,31.98z" fill="#016BA2"/>
  <path d="M26,37.96l5.03-6.95c0,0,1.36,1,3.44,1.63c2.08,0.63,11.7,2.68,16.3,9.42 C55.85,49.49,52.82,57,52.82,57s-4.15,1.97-11.5,3.04c-4.76,0.69-7.79-0.17-7.79-0.17s-5.85-10.19-5.94-10.47S26,37.96,26,37.96z" fill="#DDE2E1"/>
  <path d="M42.56,39.08c-1.01-0.41-2.66,0.64-2.79,3.51c-0.24,5.17,5.35,6.42,5.35,6.42s0.66,2.8,2.56,3.98 c3.45,2.14,4.7,0.12,4.46-0.71c-0.24-0.83-1.43-0.77-2.5-2.2c-0.74-0.99-1.13-3.09-1.43-3.51s-2.5-0.18-4.22-3.09 C42.77,41.42,43.15,39.32,42.56,39.08z" fill="#016BA2"/>
  <path d="M27.22,37c-2.5,0.71-3.15,6.64-1.01,13.38c1.66,5.23,5.77,10.58,9.39,9.39 c3.15-1.03,4.04-6.66,1.19-13.85C33.94,38.73,30.29,36.12,27.22,37z" fill="#016BA2"/>
  <path d="M28.65,39.86c-1.04,0.26-0.59,6.78,0.71,9.87s3.92,7.37,5.41,6.72c0.76-0.34,0.65-5.41-0.71-9.33 C32.69,43.19,29.6,39.62,28.65,39.86z" fill="#DDE2E1"/>
  <path d="M53.64,25.39c-3.66,2.11-4.29,7.27-2.18,11.06c1.81,3.26,5.36,4.85,8.86,3.5 c3.37-1.3,4.79-6.38,2.89-10.63C61.4,25.28,56.77,23.59,53.64,25.39z" fill="#FFFFFF"/>
  <path d="M55.16,28.62c-2.21,1.31-2.27,4.03-1.14,6.03c1.24,2.19,3.99,2.19,5.46,1.28 c1.73-1.06,2.12-3.31,1.24-5.32C59.67,28.24,57.01,27.53,55.16,28.62z" fill="#2D2D2E"/>
  <path d="M37.9,75.09c0,0,4.35-6.95,14.41-10.58c15.3-5.52,29.65-4.43,40.23-4.67 c18.46-0.41,21.88-6.64,24.68-4.15c2.36,2.09-4.46,11.92-3.94,15.76c0.29,2.15,1.24,4.04,4.15,4.87s6.4,1.25,6.74,2.8 c0.41,1.87-5.08,7.88-15.55,11.92c-8.61,3.33-18.66,3.63-27.27,4.98c-7.28,1.14-15.1,3.63-19.39,4.98 c-5.6,1.76-10.26,2.07-10.26,2.07s-9.54-24.68-9.85-24.99C41.53,77.79,37.9,75.09,37.9,75.09z" fill="#F26D31"/>
  <path d="M38.1,74.51c0,0,6.12-0.37,11.59,3.55c5.08,3.64,10.91,10.83,10.66,17.51 c-0.14,3.81-2.4,6.52-2.4,6.52s-3.67,1.52-9.45,1.18c-7.18-0.42-9.22-3.05-9.22-3.05l-5.75-15.06c0,0,0.51-4.99,1.78-6.94 C36.58,76.29,38.1,74.51,38.1,74.51z" fill="#DDE2E1"/>
  <path d="M32.98,91.27c1.35,5.56,5.57,10.78,8.95,9.99c3.12-0.73,4.21-5.49,2.39-12.7 c-1.77-7.03-5-11.29-9.02-10.33C31.53,79.15,31.78,86.33,32.98,91.27z" fill="#F26D31"/>
  <path d="M36.16,81.49c-1.41,0.42-1.1,4.77-0.1,8.9c0.73,3.02,2.55,7.86,4.22,7.44 c1.67-0.42,1.09-5.67,0.31-8.69C39.8,86.12,37.89,80.97,36.16,81.49z" fill="#DDE2E1"/>
  <path d="M48.7,81.95c-2.13,0-1.62,4.38-0.26,6.56c1.82,2.91,4.06,3.54,4.06,3.54s0.49,2.79,2.19,4.68 c0.88,0.99,2.21,1.71,2.76,1.35c0.6-0.39-0.07-2.12-0.57-4.11c-0.68-2.65-0.78-4.27-0.78-4.27s-2.55-1.51-3.85-3.33 S50.79,81.95,48.7,81.95z" fill="#F26D31"/>
  <path d="M59.32,72.22c-3.5,2.13-3.64,7.13-0.94,11.09c2.71,3.96,7.08,3.8,9.42,2.45 c2.34-1.35,3.85-6.09,1.2-10.67C66.6,70.95,61.97,70.61,59.32,72.22z" fill="#F8FFFD"/>
  <path d="M61.61,74.77c-1.87,0.83-2.29,4.32-0.68,6.45c1.61,2.13,3.8,2.18,5,1.25 c1.87-1.46,1.57-4.11,0.68-5.72C65.56,74.88,63.31,74.02,61.61,74.77z" fill="#2D2D2E"/>
  <path d="M13.96,56.39c-2.52,0-3.81-0.94-3.97-1.05c-0.66-0.51-0.78-1.45-0.27-2.1 c0.51-0.66,1.45-0.77,2.1-0.27l0,0c0,0,0.85,0.55,2.73,0.4c2.18-0.17,3.55-1.04,3.56-1.05l0.27-0.14l12.74-5.01 c0.77-0.3,1.64,0.08,1.95,0.85c0.3,0.77-0.08,1.64-0.85,1.95l-12.61,4.96c-0.53,0.32-2.26,1.24-4.83,1.44 C14.5,56.38,14.22,56.39,13.96,56.39z" fill="#B6CED5"/>
  <path d="M20.29,98.16c-2.62,0-4.37-0.89-4.56-0.99c-0.73-0.39-1.01-1.29-0.63-2.03 c0.39-0.73,1.29-1.01,2.03-0.63c0,0,1.28,0.64,3.16,0.64c1.62,0,2.87-1.4,2.88-1.42l0.27-0.31l0.4-0.14l14-4.63 c0.79-0.26,1.64,0.17,1.9,0.95c0.26,0.79-0.17,1.63-0.95,1.89l-13.65,4.51C24.44,96.71,22.67,98.16,20.29,98.16z" fill="#B6CED5"/>
  <path d="M73.1,35.27c-1.38,0.83,0.52,2.61-0.06,8.01c-0.5,4.7-4.17,8.84-4.17,8.84s2.4-0.67,3.72-0.94 c1.33-0.28,3.48-0.72,3.48-0.72s1.22-2.54,1.27-6.91C77.41,39.35,75.23,33.99,73.1,35.27z" fill="#39BDE3"/>
  <path d="M75.37,21.18c-0.17,0.31,0.44,1.88,0.83,3.43c0.39,1.55,0.64,3.68,1.11,3.87 c0.66,0.28,3.91-1.57,2.93-5.08C79.18,19.63,75.7,20.57,75.37,21.18z" fill="#39BDE3"/>
  <path d="M83.77,25.49c-0.77,0.88,0.33,2.04,0.72,3.59c0.39,1.55,0.48,3.18,0.94,3.37 c0.66,0.28,3.87-1.33,3.26-4.48C87.95,24.15,84.22,24.97,83.77,25.49z" fill="#39BDE3"/>
  <path d="M81.32,15.9c-0.48,0.97,0.52,2.02,0.9,4.01c0.3,1.57,0.53,3.56,0.99,3.76 c0.66,0.28,4.19-1.95,3.2-5.47C85.37,14.44,81.62,15.28,81.32,15.9z" fill="#39BDE3"/>
  <path d="M90.93,20.21c-0.17,0.31,0.44,1.88,0.83,3.43c0.39,1.55,0.64,3.68,1.11,3.87 c0.66,0.28,3.91-1.57,2.93-5.08C94.74,18.67,91.26,19.61,90.93,20.21z" fill="#39BDE3"/>
  <path d="M96.18,15.57c-0.15,0.32,0.52,2.51,0.9,4.06c0.39,1.55,0.75,3.29,1.22,3.48 c0.66,0.28,3.87-1.71,3.04-5.53C100.51,13.78,96.64,14.61,96.18,15.57z" fill="#39BDE3"/>
  <path d="M99.05,24.6c-0.19,0.33,0.64,2.42,1.07,4.04c0.43,1.63,0.59,3.38,1.1,3.62 c1,0.47,4.52-1.69,3.28-5.34C103.38,23.61,99.42,23.96,99.05,24.6z" fill="#39BDE3"/>
  <path d="M93,29.58c-0.17,0.34,0.66,1.84,1.16,3.7c0.45,1.68,0.67,4.01,1.13,4.22 c0.66,0.31,4.08-1.36,3.13-5.21C97.39,28.17,93.33,28.92,93,29.58z" fill="#39BDE3"/>
  <path d="M77.97,30.63c-0.17,0.31,0.39,2.21,0.77,3.76c0.39,1.55,0.62,3.32,1.09,3.51 c0.66,0.28,3.82-1.54,2.93-5.08C82,29.8,78.3,30.02,77.97,30.63z" fill="#39BDE3"/>
  <path d="M86.18,35.46c-0.48,0.86,0.41,1.91,0.79,3.45c0.39,1.55,0.69,3.62,1.14,3.84 c0.96,0.47,3.91-1.66,3.28-4.83C90.64,34.1,86.52,34.86,86.18,35.46z" fill="#39BDE3"/>
  <path d="M101.24,35.08c-0.17,0.3,0.42,2.19,0.93,3.67s1.08,3.17,1.56,3.32c0.68,0.22,4.11-2.36,2.92-5.75 C105.59,33.34,101.67,34.33,101.24,35.08z" fill="#39BDE3"/>
  <path d="M80.7,77.14c-0.16,0.32,0.5,1.88,0.95,3.51c0.42,1.55,0.91,3.36,1.38,3.54 c0.67,0.26,3.87-1.67,2.81-5.18C84.7,75.26,81.02,76.52,80.7,77.14z" fill="#FEC516"/>
  <path d="M86.27,71.68c-0.17,0.31,0.79,2.03,1.31,3.45c0.55,1.5,0.64,3.68,1.11,3.87 c0.66,0.28,3.43-1.35,2.59-4.9C90.43,70.49,86.6,71.07,86.27,71.68z" fill="#FEC516"/>
  <path d="M78.11,67.53c-0.18,0.34,0.54,2,1,3.64c0.47,1.64,0.72,3.07,1.15,3.42c1.13,0.9,4.38-0.71,3.36-4.71 C82.59,65.82,78.46,66.87,78.11,67.53z" fill="#FEC516"/>
  <path d="M84.16,62.1c-0.66,0.47,0.32,1.9,0.6,3.47c0.28,1.57,0.3,3.4,0.77,3.58c1.35,0.51,4.27-0.3,3.55-4.45 C88.4,60.82,84.73,61.7,84.16,62.1z" fill="#FEC516"/>
  <path d="M92.23,66.89c-0.23,1.07,0.97,1.48,1.66,3.57c0.6,1.83,0.47,3.09,0.95,3.24 c1.46,0.45,4.65-2.1,3.47-5.12C96.91,64.97,92.38,66.17,92.23,66.89z" fill="#FEC516"/>
  <path d="M98.66,62.3c-0.17,0.31,0.33,1.38,1.02,3.26c0.55,1.5,0.64,3.68,1.11,3.87 c0.66,0.28,3.8-1.55,2.82-5.07C102.55,60.6,98.99,61.69,98.66,62.3z" fill="#FEC516"/>
  <path d="M101.52,71.6c-0.17,0.31,0.51,1.78,0.9,3.06c0.46,1.53,0.41,3.18,1.12,3.66 c1.07,0.73,4.17-1.48,3.04-4.96C105.54,70.13,101.86,70.99,101.52,71.6z" fill="#FEC516"/>
  <path d="M95.6,76.05c-0.17,0.31,0.38,1.91,0.64,3.5c0.28,1.77,0.27,3.34,0.72,3.55 c1.07,0.51,4.64-0.82,3.77-4.62C99.87,74.72,95.93,75.45,95.6,76.05z" fill="#FEC516"/>
  <path d="M103.86,80.66c-0.17,0.31,0.44,1.88,0.83,3.43c0.39,1.55,0.7,3,1.1,3.3c0.9,0.68,4.06-0.9,3.22-4.56 C108.13,79.02,104.19,80.05,103.86,80.66z" fill="#FEC516"/>
  <path d="M88.88,81.06c-0.48,0.65,0.6,2.13,0.79,3.72c0.23,1.86,0.28,3.27,0.73,3.49 c1.29,0.62,4.81-1.41,3.61-4.95C92.79,79.68,89.29,80.5,88.88,81.06z" fill="#FEC516"/>
  <path d="M72.8,97.85c0,0,3.47-3.86,3.39-6.75c-0.11-4.33-1.35-6.47,0.34-7.09c1.4-0.51,2.93,1.75,3.49,4.17 c1.35,5.82,0.06,8.1,0.06,8.1s-2.13,0.46-3.78,0.79C74.89,97.34,72.8,97.85,72.8,97.85z" fill="#FEC516"/>
</svg>

<svg viewBox="0 0 128 128" xmlns="http://www.w3.org/2000/svg">
  <defs/>
  <path d="M7.2,20.67 L14.05,20.06 L26.99,120.25 C26.99,120.25 26.54,123.04 23.94,123.3 C20.89,123.6 20.13,120.71 20.13,120.71 L7.2,20.67 Z" fill="#FBC219"/>
  <path d="M2.67,17.47 C3.3,22.63 7.92,24.19 11.01,23.98 C14.44,23.75 18.89,21.1 18.32,15.53 C17.65,8.99 11.92,7.76 8.72,8.56 C5.07,9.47 2.1,12.79 2.67,17.47 Z" fill="#E07F16"/>
  <path d="M11.35,10.84 C8.8,9.02 5.64,11.3 4.73,13.59 C3.82,15.88 4.5,17.7 5.75,18.73 C7,19.76 9.75,19.42 11.35,17.47 C12.85,15.65 13.75,12.56 11.35,10.84 Z" fill="#FFC020"/>
  <path d="M30.43,31.98 C30.43,31.98 34.54,25.35 42.65,19.98 C50.76,14.61 59.67,10.73 75.44,10.95 C86.18,11.11 92.46,11.91 98.86,11.98 C109.48,12.09 116.06,8.09 117.71,10.72 C119.99,14.38 111.37,24.72 111.54,27.74 C111.77,31.74 123.08,30.48 123.19,34.71 C123.27,37.57 116.91,44.76 107.2,47.16 C97.49,49.56 85.5,49 77.84,50.14 C70.19,51.28 56.7,55.64 52.31,57.04 C45.9,59.09 30.43,31.98 30.43,31.98 Z" fill="#016BA2"/>
  <path d="M26,37.96 L31.03,31.01 C31.03,31.01 32.39,32.01 34.47,32.64 C36.55,33.27 46.17,35.32 50.77,42.06 C55.85,49.49 52.82,57 52.82,57 C52.82,57 48.67,58.97 41.32,60.04 C36.56,60.73 33.53,59.87 33.53,59.87 C33.53,59.87 27.68,49.68 27.59,49.4 C27.5,49.12 26,37.96 26,37.96 Z" fill="#DDE2E1"/>
  <path d="M42.56,39.08 C41.55,38.67 39.9,39.72 39.77,42.59 C39.53,47.76 45.12,49.01 45.12,49.01 C45.12,49.01 45.78,51.81 47.68,52.99 C51.13,55.13 52.38,53.11 52.14,52.28 C51.9,51.45 50.71,51.51 49.64,50.08 C48.9,49.09 48.51,46.99 48.21,46.57 C47.91,46.15 45.71,46.39 43.99,43.48 C42.77,41.42 43.15,39.32 42.56,39.08 Z" fill="#016BA2"/>
  <path d="M27.22,37 C24.72,37.71 24.07,43.64 26.21,50.38 C27.87,55.61 31.98,60.96 35.6,59.77 C38.75,58.74 39.64,53.11 36.79,45.92 C33.94,38.73 30.29,36.12 27.22,37 Z" fill="#016BA2"/>
  <path d="M28.65,39.86 C27.61,40.12 28.06,46.64 29.36,49.73 C30.66,52.82 33.28,57.1 34.77,56.45 C35.53,56.11 35.42,51.04 34.06,47.12 C32.69,43.19 29.6,39.62 28.65,39.86 Z" fill="#DDE2E1"/>
  <path d="M53.64,25.39 C49.98,27.5 49.35,32.66 51.46,36.45 C53.27,39.71 56.82,41.3 60.32,39.95 C63.69,38.65 65.11,33.57 63.21,29.32 C61.4,25.28 56.77,23.59 53.64,25.39 Z" fill="#FFFFFF"/>
  <path d="M55.16,28.62 C52.95,29.93 52.89,32.65 54.02,34.65 C55.26,36.84 58.01,36.84 59.48,35.93 C61.21,34.87 61.6,32.62 60.72,30.61 C59.67,28.24 57.01,27.53 55.16,28.62 Z" fill="#2D2D2E"/>
  <path d="M37.9,75.09 C37.9,75.09 42.25,68.14 52.31,64.51 C67.61,58.99 81.96,60.08 92.54,59.84 C111,59.43 114.42,53.2 117.22,55.69 C119.58,57.78 112.76,67.61 113.28,71.45 C113.57,73.6 114.52,75.49 117.43,76.32 C120.34,77.15 123.83,77.57 124.17,79.12 C124.58,80.99 119.09,87 108.62,91.04 C100.01,94.37 89.96,94.67 81.35,96.02 C74.07,97.16 66.25,99.65 61.96,101 C56.36,102.76 51.7,103.07 51.7,103.07 C51.7,103.07 42.16,78.39 41.85,78.08 C41.53,77.79 37.9,75.09 37.9,75.09 Z" fill="#F26D31"/>
  <path d="M38.1,74.51 C38.1,74.51 44.22,74.14 49.69,78.06 C54.77,81.7 60.6,88.89 60.35,95.57 C60.21,99.38 57.95,102.09 57.95,102.09 C57.95,102.09 54.28,103.61 48.5,103.27 C41.32,102.85 39.28,100.22 39.28,100.22 L33.53,85.16 C33.53,85.16 34.04,80.17 35.31,78.22 C36.58,76.29 38.1,74.51 38.1,74.51 Z" fill="#DDE2E1"/>
  <path d="M32.98,91.27 C34.33,96.83 38.55,102.05 41.93,101.26 C45.05,100.53 46.14,95.77 44.32,88.56 C42.55,81.53 39.32,77.27 35.3,78.23 C31.53,79.15 31.78,86.33 32.98,91.27 Z" fill="#F26D31"/>
  <path d="M36.16,81.49 C34.75,81.91 35.06,86.26 36.06,90.39 C36.79,93.41 38.61,98.25 40.28,97.83 C41.95,97.41 41.37,92.16 40.59,89.14 C39.8,86.12 37.89,80.97 36.16,81.49 Z" fill="#DDE2E1"/>
  <path d="M48.7,81.95 C46.57,81.95 47.08,86.33 48.44,88.51 C50.26,91.42 52.5,92.05 52.5,92.05 C52.5,92.05 52.99,94.84 54.69,96.73 C55.57,97.72 56.9,98.44 57.45,98.08 C58.05,97.69 57.38,95.96 56.88,93.97 C56.2,91.32 56.1,89.7 56.1,89.7 C56.1,89.7 53.55,88.19 52.25,86.37 C50.95,84.55 50.79,81.95 48.7,81.95 Z" fill="#F26D31"/>
  <path d="M59.32,72.22 C55.82,74.35 55.68,79.35 58.38,83.31 C61.09,87.27 65.46,87.11 67.8,85.76 C70.14,84.41 71.65,79.67 69,75.09 C66.6,70.95 61.97,70.61 59.32,72.22 Z" fill="#F8FFFD"/>
  <path d="M61.61,74.77 C59.74,75.6 59.32,79.09 60.93,81.22 C62.54,83.35 64.73,83.4 65.93,82.47 C67.8,81.01 67.5,78.36 66.61,76.75 C65.56,74.88 63.31,74.02 61.61,74.77 Z" fill="#2D2D2E"/>
  <path d="M13.96,56.39 C11.44,56.39 10.15,55.45 9.99,55.34 C9.33,54.83 9.21,53.89 9.72,53.24 C10.23,52.58 11.17,52.47 11.82,52.97 L11.82,52.97 C11.82,52.97 12.67,53.52 14.55,53.37 C16.73,53.2 18.1,52.33 18.11,52.32 L18.38,52.18 L31.12,47.17 C31.89,46.87 32.76,47.25 33.07,48.02 C33.37,48.79 32.99,49.66 32.22,49.97 L19.61,54.93 C19.08,55.25 17.35,56.17 14.78,56.37 C14.5,56.38 14.22,56.39 13.96,56.39 Z" fill="#B6CED5"/>
  <path d="M20.29,98.16 C17.67,98.16 15.92,97.27 15.73,97.17 C15,96.78 14.72,95.88 15.1,95.14 C15.49,94.41 16.39,94.13 17.13,94.51 C17.13,94.51 18.41,95.15 20.29,95.15 C21.91,95.15 23.16,93.75 23.17,93.73 L23.44,93.42 L23.84,93.28 L37.84,88.65 C38.63,88.39 39.48,88.82 39.74,89.6 C40,90.39 39.57,91.23 38.79,91.49 L25.14,96 C24.44,96.71 22.67,98.16 20.29,98.16 Z" fill="#B6CED5"/>
  <path d="M73.1,35.27 C71.72,36.1 73.62,37.88 73.04,43.28 C72.54,47.98 68.87,52.12 68.87,52.12 C68.87,52.12 71.27,51.45 72.59,51.18 C73.92,50.9 76.07,50.46 76.07,50.46 C76.07,50.46 77.29,47.92 77.34,43.55 C77.41,39.35 75.23,33.99 73.1,35.27 Z" fill="#39BDE3"/>
  <path d="M75.37,21.18 C75.2,21.49 75.81,23.06 76.2,24.61 C76.59,26.16 76.84,28.29 77.31,28.48 C77.97,28.76 81.22,26.91 80.24,23.4 C79.18,19.63 75.7,20.57 75.37,21.18 Z" fill="#39BDE3"/>
  <path d="M83.77,25.49 C83,26.37 84.1,27.53 84.49,29.08 C84.88,30.63 84.97,32.26 85.43,32.45 C86.09,32.73 89.3,31.12 88.69,27.97 C87.95,24.15 84.22,24.97 83.77,25.49 Z" fill="#39BDE3"/>
  <path d="M81.32,15.9 C80.84,16.87 81.84,17.92 82.22,19.91 C82.52,21.48 82.75,23.47 83.21,23.67 C83.87,23.95 87.4,21.72 86.41,18.2 C85.37,14.44 81.62,15.28 81.32,15.9 Z" fill="#39BDE3"/>
  <path d="M90.93,20.21 C90.76,20.52 91.37,22.09 91.76,23.64 C92.15,25.19 92.4,27.32 92.87,27.51 C93.53,27.79 96.78,25.94 95.8,22.43 C94.74,18.67 91.26,19.61 90.93,20.21 Z" fill="#39BDE3"/>
  <path d="M96.18,15.57 C96.03,15.89 96.7,18.08 97.08,19.63 C97.47,21.18 97.83,22.92 98.3,23.11 C98.96,23.39 102.17,21.4 101.34,17.58 C100.51,13.78 96.64,14.61 96.18,15.57 Z" fill="#39BDE3"/>
  <path d="M99.05,24.6 C98.86,24.93 99.69,27.02 100.12,28.64 C100.55,30.27 100.71,32.02 101.22,32.26 C102.22,32.73 105.74,30.57 104.5,26.92 C103.38,23.61 99.42,23.96 99.05,24.6 Z" fill="#39BDE3"/>
  <path d="M93,29.58 C92.83,29.92 93.66,31.42 94.16,33.28 C94.61,34.96 94.83,37.29 95.29,37.5 C95.95,37.81 99.37,36.14 98.42,32.29 C97.39,28.17 93.33,28.92 93,29.58 Z" fill="#39BDE3"/>
  <path d="M77.97,30.63 C77.8,30.94 78.36,32.84 78.74,34.39 C79.13,35.94 79.36,37.71 79.83,37.9 C80.49,38.18 83.65,36.36 82.76,32.82 C82,29.8 78.3,30.02 77.97,30.63 Z" fill="#39BDE3"/>
  <path d="M86.18,35.46 C85.7,36.32 86.59,37.37 86.97,38.91 C87.36,40.46 87.66,42.53 88.11,42.75 C89.07,43.22 92.02,41.09 91.39,37.92 C90.64,34.1 86.52,34.86 86.18,35.46 Z" fill="#39BDE3"/>
  <path d="M101.24,35.08 C101.07,35.38 101.66,37.27 102.17,38.75 C102.68,40.23 103.25,41.92 103.73,42.07 C104.41,42.29 107.84,39.71 106.65,36.32 C105.59,33.34 101.67,34.33 101.24,35.08 Z" fill="#39BDE3"/>
  <path d="M80.7,77.14 C80.54,77.46 81.2,79.02 81.65,80.65 C82.07,82.2 82.56,84.01 83.03,84.19 C83.7,84.45 86.9,82.52 85.84,79.01 C84.7,75.26 81.02,76.52 80.7,77.14 Z" fill="#FEC516"/>
  <path d="M86.27,71.68 C86.1,71.99 87.06,73.71 87.58,75.13 C88.13,76.63 88.22,78.81 88.69,79 C89.35,79.28 92.12,77.65 91.28,74.1 C90.43,70.49 86.6,71.07 86.27,71.68 Z" fill="#FEC516"/>
  <path d="M78.11,67.53 C77.93,67.87 78.65,69.53 79.11,71.17 C79.58,72.81 79.83,74.24 80.26,74.59 C81.39,75.49 84.64,73.88 83.62,69.88 C82.59,65.82 78.46,66.87 78.11,67.53 Z" fill="#FEC516"/>
  <path d="M84.16,62.1 C83.5,62.57 84.48,64 84.76,65.57 C85.04,67.14 85.06,68.97 85.53,69.15 C86.88,69.66 89.8,68.85 89.08,64.7 C88.4,60.82 84.73,61.7 84.16,62.1 Z" fill="#FEC516"/>
  <path d="M92.23,66.89 C92,67.96 93.2,68.37 93.89,70.46 C94.49,72.29 94.36,73.55 94.84,73.7 C96.3,74.15 99.49,71.6 98.31,68.58 C96.91,64.97 92.38,66.17 92.23,66.89 Z" fill="#FEC516"/>
  <path d="M98.66,62.3 C98.49,62.61 98.99,63.68 99.68,65.56 C100.23,67.06 100.32,69.24 100.79,69.43 C101.45,69.71 104.59,67.88 103.61,64.36 C102.55,60.6 98.99,61.69 98.66,62.3 Z" fill="#FEC516"/>
  <path d="M101.52,71.6 C101.35,71.91 102.03,73.38 102.42,74.66 C102.88,76.19 102.83,77.84 103.54,78.32 C104.61,79.05 107.71,76.84 106.58,73.36 C105.54,70.13 101.86,70.99 101.52,71.6 Z" fill="#FEC516"/>
  <path d="M95.6,76.05 C95.43,76.36 95.98,77.96 96.24,79.55 C96.52,81.32 96.51,82.89 96.96,83.1 C98.03,83.61 101.6,82.28 100.73,78.48 C99.87,74.72 95.93,75.45 95.6,76.05 Z" fill="#FEC516"/>
  <path d="M103.86,80.66 C103.69,80.97 104.3,82.54 104.69,84.09 C105.08,85.64 105.39,87.09 105.79,87.39 C106.69,88.07 109.85,86.49 109.01,82.83 C108.13,79.02 104.19,80.05 103.86,80.66 Z" fill="#FEC516"/>
  <path d="M88.88,81.06 C88.4,81.71 89.48,83.19 89.67,84.78 C89.9,86.64 89.95,88.05 90.4,88.27 C91.69,88.89 95.21,86.86 94.01,83.32 C92.79,79.68 89.29,80.5 88.88,81.06 Z" fill="#FEC516"/>
  <path d="M72.8,97.85 C72.8,97.85 76.27,93.99 76.19,91.1 C76.08,86.77 74.84,84.63 76.53,84.01 C77.93,83.5 79.46,85.76 80.02,88.18 C81.37,94 80.08,96.28 80.08,96.28 C80.08,96.28 77.95,96.74 76.3,97.07 C74.89,97.34 72.8,97.85 72.8,97.85 Z" fill="#FEC516"/>
</svg>
